Adwaita++/apps/16/gnome-power-manager.svg

<svg height="16" width="16" xmlns="http://www.w3.org/2000/svg">
  <g fill="#474747">
    <path d="m3.469 0c-.49 0-.796.229-1.032.47-.235.24-.437.56-.437 1.033v.497h-2v14h7v-2l-4.95.05-.05-10.05h2v-2h3v2h2v1h2v-3h-2v-.403a1.669 1.669 0 0 0 -.406-1.033 1.528 1.528 0 0 0 -1.157-.534v-.03h-3.967z"/>
    <path d="m6 10h2c.276-1.103 1.065-3.724 3-4h3v2h2v2h-2v2h2v2h-2v2h-3c-1.935-.276-2.724-2.897-3-4h-2z" fill-rule="evenodd"/>
  </g>
</svg>

<svg xmlns="http://www.w3.org/2000/svg" width="16" height="16">
    <g fill="#474747">
        <path d="M3.469 0c-.49 0-.796.229-1.032.47C2.202.71 2 1.03 2 1.503V2H0v14h7v-2l-4.95.05L2 4h2V2h3v2h2v1h2V2H9v-.403A1.669 1.669 0 0 0 8.594.564 1.528 1.528 0 0 0 7.437.03V0H3.47z" style="line-height:normal;-inkscape-font-specification:Sans;text-indent:0;text-align:start;text-decoration-line:none;text-transform:none;marker:none" color="#bebebe" font-weight="400" font-family="Sans" overflow="visible"/>
        <path d="M6 10h2c.276-1.103 1.065-3.724 3-4h3v2h2v2h-2v2h2v2h-2v2h-3c-1.935-.276-2.724-2.897-3-4H6z" fill-rule="evenodd"/>
    </g>
</svg>
